packages/core/assets/Icons/link_off.svg

<svg viewBox="0 0 20 20" fill="none" xmlns="http://www.w3.org/2000/svg">
<path d="M13.0209 10.6458L11.5417 9.16667H12.5C12.7362 9.16667 12.9341 9.24653 13.0938 9.40625C13.2535 9.56597 13.3334 9.76389 13.3334 10C13.3334 10.1389 13.3056 10.2639 13.25 10.375C13.1945 10.4861 13.1181 10.5764 13.0209 10.6458ZM17.0834 18.25C16.9306 18.4028 16.7362 18.4792 16.5 18.4792C16.2639 18.4792 16.0695 18.4028 15.9167 18.25L1.75004 4.08333C1.59726 3.93056 1.52087 3.73611 1.52087 3.5C1.52087 3.26389 1.59726 3.06944 1.75004 2.91667C1.90282 2.76389 2.09726 2.6875 2.33337 2.6875C2.56949 2.6875 2.76393 2.76389 2.91671 2.91667L17.0834 17.0833C17.2362 17.2361 17.3125 17.4306 17.3125 17.6667C17.3125 17.9028 17.2362 18.0972 17.0834 18.25ZM5.83337 14.1667C4.6806 14.1667 3.69796 13.7604 2.88546 12.9479C2.07296 12.1354 1.66671 11.1528 1.66671 10C1.66671 9.04167 1.95837 8.1875 2.54171 7.4375C3.12504 6.6875 3.87504 6.19444 4.79171 5.95833L6.33337 7.5H5.83337C5.13893 7.5 4.54865 7.74306 4.06254 8.22917C3.57643 8.71528 3.33337 9.30556 3.33337 10C3.33337 10.6944 3.57643 11.2847 4.06254 11.7708C4.54865 12.2569 5.13893 12.5 5.83337 12.5H8.33337C8.56949 12.5 8.7674 12.5799 8.92712 12.7396C9.08685 12.8993 9.16671 13.0972 9.16671 13.3333C9.16671 13.5694 9.08685 13.7674 8.92712 13.9271C8.7674 14.0868 8.56949 14.1667 8.33337 14.1667H5.83337ZM7.50004 10.8333C7.26393 10.8333 7.06601 10.7535 6.90629 10.5938C6.74657 10.434 6.66671 10.2361 6.66671 10C6.66671 9.76389 6.74657 9.56597 6.90629 9.40625C7.06601 9.24653 7.26393 9.16667 7.50004 9.16667H8.02087L9.66671 10.8333H7.50004ZM15.4167 13.1667C15.2917 12.9722 15.2466 12.7639 15.2813 12.5417C15.316 12.3194 15.4306 12.1458 15.625 12.0208C15.9445 11.7847 16.198 11.4931 16.3855 11.1458C16.573 10.7986 16.6667 10.4167 16.6667 10C16.6667 9.30556 16.4237 8.71528 15.9375 8.22917C15.4514 7.74306 14.8612 7.5 14.1667 7.5H11.6667C11.4306 7.5 11.2327 7.42014 11.073 7.26042C10.9132 7.10069 10.8334 6.90278 10.8334 6.66667C10.8334 6.43056 10.9132 6.23264 11.073 6.07292C11.2327 5.91319 11.4306 5.83333 11.6667 5.83333H14.1667C15.3195 5.83333 16.3021 6.23958 17.1146 7.05208C17.9271 7.86458 18.3334 8.84722 18.3334 10C18.3334 10.6806 18.1771 11.316 17.8646 11.9062C17.5521 12.4965 17.1181 12.9861 16.5625 13.375C16.3681 13.5 16.1598 13.5451 15.9375 13.5104C15.7153 13.4757 15.5417 13.3611 15.4167 13.1667Z" fill="currentColor"/>
</svg>

<svg xmlns="http://www.w3.org/2000/svg" width="20" height="20" fill="none" viewBox="0 0 20 20">
  <path fill="#201F1F" d="m13.02 10.646-1.478-1.48h.958c.236 0 .434.08.594.24.16.16.24.358.24.594a.826.826 0 0 1-.084.375.725.725 0 0 1-.23.27Zm4.063 7.604a.79.79 0 0 1-.583.23.79.79 0 0 1-.583-.23L1.75 4.083a.79.79 0 0 1-.23-.583.79.79 0 0 1 .23-.583.79.79 0 0 1 .583-.23.79.79 0 0 1 .584.23l14.166 14.166a.79.79 0 0 1 .23.584.79.79 0 0 1-.23.583Zm-11.25-4.083c-1.152 0-2.135-.407-2.948-1.22-.812-.812-1.218-1.794-1.218-2.947 0-.958.291-1.813.875-2.563a4.06 4.06 0 0 1 2.25-1.479L6.333 7.5h-.5a2.41 2.41 0 0 0-1.77.73 2.41 2.41 0 0 0-.73 1.77c0 .694.243 1.285.73 1.77.486.487 1.076.73 1.77.73h2.5c.236 0 .434.08.594.24.16.16.24.357.24.593s-.08.434-.24.594a.806.806 0 0 1-.594.24h-2.5ZM7.5 10.833a.806.806 0 0 1-.594-.24.807.807 0 0 1-.24-.593c0-.236.08-.434.24-.594.16-.16.358-.24.594-.24h.52l1.647 1.667H7.5Zm7.917 2.334a.872.872 0 0 1-.136-.625.73.73 0 0 1 .344-.521c.32-.236.573-.528.76-.875A2.37 2.37 0 0 0 16.667 10a2.41 2.41 0 0 0-.73-1.77 2.41 2.41 0 0 0-1.77-.73h-2.5a.806.806 0 0 1-.594-.24.806.806 0 0 1-.24-.593c0-.236.08-.434.24-.594.16-.16.358-.24.594-.24h2.5c1.152 0 2.135.407 2.948 1.22.812.812 1.218 1.794 1.218 2.947 0 .68-.156 1.316-.468 1.906a4.13 4.13 0 0 1-1.302 1.469.872.872 0 0 1-.625.135.73.73 0 0 1-.521-.343Z"/>
</svg>
